X:1
T:Title
%%score { ( 1 3 5 ) | ( 2 4 ) }
L:1/8
M:4/4
K:Bb
V:1 treble nm="Grand Piano"
V:3 treble 
V:5 treble 
V:2 bass 
V:4 bass 
V:1
 z4 z2 z[Q:1/4=86] [DF] | [DF]>[CE] [B,D][CE] [DF][Fd][Fc][B,FB] | %2
[M:7/8] [B,EG]>[B,GB][B,FA] [B,EG] [DF]3 |[M:1/8] [B,DF] | %4
[M:4/4] [A,CF]>[B,CG] [CFA][CGB] [CAc][Bd][Ac][FA] |[M:7/8] [=EG]>[GB][FA] [EG] F3 |[M:1/8] F | %7
[M:4/4] [Fd]>[Fd] [Fd][Ec] [Ec][DB][DF]F |[M:7/8] G>[FB][EA] [DB] c3 |[M:1/8] d | %10
[M:4/4] e>d ce d[Fc][GB]G |[M:7/8] FBB A [DB]3 |[M:1/8] z |[M:4/4] d4 z4 | e4 z4 | f2 e2 d4 | %16
[M:7/8] c2 B2 G3 |[M:1/8] G |[M:4/4] z B,B,B, z ddc |[M:3/4] B-[DB-] [EB-][GB-] [DB]2 |] %20
V:2
 z4 z2 z [B,,B,] | [B,,B,]>[B,,F,] [B,,F,][B,,F,] [B,,B,][B,,B,][C,A,]D, |[M:7/8] E,>E,E, G, B,3 | %3
[M:1/8] B,, |[M:4/4] F,>F, F,F, F,[F,C][F,C][F,C] |[M:7/8] [C,C]>[C,C][C,C] [C,B,] [F,A,]3 | %6
[M:1/8] [F,A,] |[M:4/4] [B,,B,]>[B,,B,] [B,,B,][B,,B,] [B,,B,][B,,B,][B,,B,][D,B,] | %8
[M:7/8] [E,B,E]>[D,B,][C,F,] [B,,B,][K:treble] [F,A,F]3 |[M:1/8] [F,B,F] | %10
[M:4/4] [F,CF]>[F,B,F] [F,A,F][F,CF] [B,F][K:bass][D,B,][E,B,][E,B,E] | %11
[M:7/8] [F,B,D][F,DF][F,CE] [F,CE] [B,,B,]3 |[M:1/8] [F,F] | %13
[M:4/4] [B,,B,][B,,B,][B,,B,][B,,B,] [B,,B,][B,,B,][B,,B,][D,B,] | %14
 [F,CF][F,C][F,C][F,B,F] [F,B,F][F,A,F][F,A,F][E,A,] | %15
 [D,B,][D,B,][C,A,][C,A,] [B,,B,][B,,B,] z D | %16
[M:7/8] [E,G,E][E,G,][E,G,E] [E,G,][E,B,E] [E,B,][E,B,] |[M:1/8] [E,B,E] | %18
[M:4/4] D-[F,D-][F,D-][F,D-] D[K:treble]FFE |[M:3/4][K:bass] B,,[B,,F,] [B,,G,][B,,B,] [B,,F,]2 |] %20
V:3
 x8 | x8 |[M:7/8] x7 |[M:1/8] x |[M:4/4] x8 |[M:7/8] x7 |[M:1/8] x |[M:4/4] x8 |[M:7/8] x7 | %9
[M:1/8] x |[M:4/4] x8 |[M:7/8] x7 |[M:1/8] x |[M:4/4] FFF[Ec] [Ec][DB][DB]F | z FFd dccF | %15
 FFFF FFFB |[M:7/8] z E z E z EE |[M:1/8] x |[M:4/4] F6 z2 |[M:3/4] .[B,D]2 z2 z2 |] %20
V:4
 x8 | x8 |[M:7/8] x7 |[M:1/8] x |[M:4/4] x8 |[M:7/8] x7 |[M:1/8] x |[M:4/4] x8 | %8
[M:7/8] x4[K:treble] x3 |[M:1/8] x |[M:4/4] x5[K:bass] x3 |[M:7/8] x7 |[M:1/8] x |[M:4/4] x8 | x8 | %15
 z4 z2 [B,,B,]2 |[M:7/8] x7 |[M:1/8] x |[M:4/4] .[F,B,]2 z2 F,2[K:treble] [F,A,]2 | %19
[M:3/4][K:bass] x6 |] %20
V:5
 x8 | x8 |[M:7/8] x7 |[M:1/8] x |[M:4/4] x8 |[M:7/8] x7 |[M:1/8] x |[M:4/4] x8 |[M:7/8] x7 | %9
[M:1/8] x |[M:4/4] x8 |[M:7/8] x7 |[M:1/8] x |[M:4/4] x8 | x8 | x8 |[M:7/8] x7 |[M:1/8] x | %18
[M:4/4] z4 B,2 z2 |[M:3/4] x6 |] %20

